public/svgs/duotone/align-left.svg

<svg xmlns="http://www.w3.org/2000/svg" viewBox="0 0 448 512"><!-- Font Awesome Pro 6.0.0-alpha2 by @fontawesome - https://fontawesome.com License - https://fontawesome.com/license (Commercial License) --><defs><style>.fa-secondary{opacity:.4}</style></defs><path d="M256 288H32C14.326 288 0 302.326 0 320S14.326 352 32 352H256C273.674 352 288 337.674 288 320S273.674 288 256 288ZM32 96H256C273.674 96 288 81.674 288 64S273.674 32 256 32H32C14.326 32 0 46.326 0 64S14.326 96 32 96Z" class="fa-secondary"/><path d="M32 224H416C433.674 224 448 209.674 448 192S433.674 160 416 160H32C14.326 160 0 174.326 0 192S14.326 224 32 224ZM416 416H32C14.326 416 0 430.326 0 448S14.326 480 32 480H416C433.674 480 448 465.674 448 448S433.674 416 416 416Z" class="fa-primary"/></svg>

<svg xmlns="http://www.w3.org/2000/svg" viewBox="0 0 448 512"><!--! Font Awesome Pro 6.5.1 by @fontawesome - https://fontawesome.com License - https://fontawesome.com/license (Commercial License) Copyright 2023 Fonticons, Inc. --><defs><style>.fa-secondary{opacity:.4}</style></defs><path class="fa-secondary" d="M256 352c17.7 0 32-14.3 32-32s-14.3-32-32-32H32c-17.7 0-32 14.3-32 32s14.3 32 32 32H256zm0-256c17.7 0 32-14.3 32-32s-14.3-32-32-32H32C14.3 32 0 46.3 0 64S14.3 96 32 96H256z"/><path class="fa-primary" d="M416 480c17.7 0 32-14.3 32-32s-14.3-32-32-32H32c-17.7 0-32 14.3-32 32s14.3 32 32 32H416zm0-256c17.7 0 32-14.3 32-32s-14.3-32-32-32H32c-17.7 0-32 14.3-32 32s14.3 32 32 32H416z"/></svg>
